X:300
T:Duke of Kent's Waltz
C:Cahusac, 1801
N:TWO B's for Colin Hume's interpretation (which you probably don't want).
%%MIDI beat 100 95 80
S:Colin Hume's website,  colinhume.com  - chords can also be printed below the stave.
Q:1/4=120
M:3/4
R:Waltz
L:1/8
K:G
P:A
V:1 name=Tune
%%MIDI program 71     Clarinet
%%MIDI control 10 0  Left speaker
|: "G"gf ga g2 | "D7"f2 de fd | "G"g2 G2 G2 | "G"G4 d2 |\
"C"e2 e2 f2 | "G"g2 d2 B2 | "Am"c2 c2 B2 | "D7"B2 A4 :|
V:2 name=Counter
%%MIDI program 73     Flute
%%MIDI control 10 127   Right speaker
|: B6 | A6 | B2 Bcdc | B4B2 |
c2B2A2 | B2A2G2 | A2E4 | F2D4 :|
P:B
V:1
"D"D2 cB c2 | "G"Bd cB AG | "D"D2 cB c2 | "G"Bd cB AG |\
"C"ed cd ef | "G"gf ed cB | "Am"ed cB AG | "D7"FA GF ED |
V:2
F2G2A2 | G2D4 | F2G2A2 | G2A2B2 | c2e2c2 | B2G4 | A2E4 | D6 |
V:1
"G"GF GA Bc | "D"d^c de fd | "Em"g2 G2 G2 | "C"G4 e2 |\
"Am"^d2 e2 e2 | "G"^c2 d2 d2 | "D7"c2 A2 F2 | "G"G6 |]
V:2
B,2D2G2 | F2A2d2 | E3F ED | C4c2 | B2c2c2 | ^A2B2B2 | F2D2C2 | B,6 |]

